X: 20319
T: John Brosnan's
R: polka
M: 2/4
K: Gmajor
|:G2 g>e|dB Be|dB GA|BA AB|
G2 g>e|dB Be|dB AB|1 GDEF:|2 G2 Bd||
|:ga/g/ fg|ed Bd|ga/g/ fg|e3f|
g2 fg|ed Be|dB AB|G2 Bd:|
|:g2 a2|b3a|gf ef|g3d|
ef/e/ dB|ef/e/ dB|dB AB|1 G2 Bd:|2 G2GF||

